!!!OTL: Graserin und Reiter Ein Maedchen, die wohl frueh aufstand
!!!ARE: Europa, Osteuropa, Tschechoslowakei, Eger
!!!ARD: Europa%Osteuropa%Ceska Republika@Eger:
!!!ARL: 50.06/12.36:
!!!YOR: 7, S. 131
!!    1935 aufgezeichnet
!!!SCT: Q0149B
!!!YEM: Copyright 1995, estate of Helmut Schaffrath.
**kern
*ICvox
*Ivox
*M2/4
*k[]
*C:
{8g
=1
8g
8e
8e
8e
=2
8e
8d
8d}
{8e
=3
8f
8a
8g
8f
=4
4f
8e}
{8g
=5
8c
16g
16g
12g
12g
12g
=6
8g
8e
8cc}
{8g
=7
8g
8f
8f
8b
=8
8cc
8e
8g}
{8g
=9
8f
16a
16a
12a
12a
12a
=10
4g
8e}
{8g
=11
8g
8f
8f
8b
=12
4cc
8r}
==
!!!AGN: Ballade, Verfuehrung, Verlassen des Elternhauses
!! Anhaengsel an der vierten Zeile.
!!!ONB: ESAC (Essen Associative Code) Database: BALLADE
!!!AMT: simple duple
!!!AIN: vox
!!!EED: Helmut Schaffrath
!!!EEV: 1.0
*-
!!!title: @{OTL} [@{SCT}]
